src/assets/img/providers-white/aviatrix.svg

<svg width="110" height="28" viewBox="0 0 110 28" fill="none" xmlns="http://www.w3.org/2000/svg">
<g clip-path="url(#clip0_4595_8477)">
<path fill-rule="evenodd" clip-rule="evenodd" d="M96.837 10.7081C96.8885 10.7309 96.9383 10.7553 96.9862 10.7813C97.2477 10.915 97.49 11.0837 97.7064 11.2829C98.0481 11.5857 98.3189 11.9609 98.4976 12.3814C98.6468 12.7336 98.7288 13.1101 98.7417 13.4924V13.5317L105.307 6.01429L105.397 5.91066L109.475 1.23274C109.775 0.88868 109.82 0.579859 109.682 0.32078C109.675 0.31868 109.668 0.314963 109.663 0.309929C109.657 0.304894 109.653 0.298676 109.651 0.291763C109.638 0.262055 109.621 0.233612 109.603 0.206785C109.565 0.159226 109.522 0.115497 109.475 0.0762069C109.391 0.022597 109.291 -0.00346586 109.192 0.00159589H105.197C104.862 0.00139326 104.529 0.0284263 104.198 0.0824281C103.103 0.481293 102.123 1.14479 101.346 2.01412C99.7106 3.88881 98.2885 6.94721 97.2956 9.46424L96.837 10.7081ZM100.33 4.5448C100.135 5.00242 99.9768 5.4743 99.8543 5.95625C99.7733 6.28166 99.7097 6.61121 99.6517 6.9449V6.94527C99.6268 7.10472 99.602 7.26422 99.5789 7.4216C99.5218 7.90038 99.4721 8.37917 99.4472 8.87245C99.4311 9.1967 99.408 9.51463 99.3851 9.8304L99.3791 9.91288L99.3782 9.92466L99.3781 9.92557L99.3781 9.92638C99.3683 10.0589 99.3585 10.1911 99.3496 10.3233C99.3229 10.6611 99.2833 10.999 99.2363 11.3347C99.2289 11.3886 99.2206 11.4425 99.2114 11.4964L99.2073 11.5242L99.2025 11.5541L99.1987 11.5765L99.1985 11.5772C99.1203 12.1072 99.0088 12.6318 98.866 13.1483C99.1543 12.661 99.3818 12.1405 99.5439 11.5979L101.504 8.93462L102.538 7.53975L99.7714 10.7295C99.7887 10.6439 99.8045 10.5582 99.8202 10.4725L99.8359 10.3875C99.8746 10.1803 99.9059 9.97303 99.9326 9.76579L102.52 6.22155L100.022 9.06935L100.024 9.05451C100.025 9.04155 100.027 9.02844 100.029 9.01523L100.029 9.01515C100.034 8.98655 100.039 8.95747 100.039 8.92841L100.115 8.16153L100.13 8.17397L101.965 5.61013L102.354 5.06502L101.881 5.60806L100.202 7.48586C100.239 7.18187 100.284 6.87927 100.338 6.57805L102.326 3.76964L100.494 5.79874C100.576 5.43395 100.669 5.07331 100.783 4.71889C101.089 3.80653 101.461 2.91719 101.893 2.05764C101.246 2.80029 100.719 3.6394 100.33 4.5448ZM36.8088 5.50464C36.6193 5.50464 36.4727 5.44418 36.3694 5.32326C36.266 5.18507 36.2315 5.02097 36.266 4.83096L36.7829 2.42124C36.8174 2.23123 36.9122 2.07577 37.0673 1.95484C37.2396 1.81666 37.4119 1.74756 37.5843 1.74756H40.8153C41.0049 1.74756 41.1513 1.81666 41.2547 1.95484C41.3581 2.07577 41.3926 2.23123 41.3581 2.42124L40.8153 4.83096C40.7981 5.02097 40.7119 5.18507 40.5569 5.32326C40.4018 5.44418 40.2294 5.50464 40.0399 5.50464H36.8088ZM33.1125 20.6624C33.2159 20.7833 33.3623 20.8438 33.5519 20.8438H36.783C36.9725 20.8438 37.1363 20.7833 37.2741 20.6624C37.4292 20.5415 37.5239 20.3861 37.5584 20.196L40.1432 8.01789C40.1777 7.82788 40.1432 7.67241 40.0399 7.55149C39.9537 7.43057 39.8158 7.37012 39.6262 7.37012H36.3953C36.2057 7.37012 36.0334 7.43921 35.8783 7.5774C35.7232 7.69832 35.6284 7.84515 35.594 8.01789L33.0349 20.196C33.0005 20.3687 33.0263 20.5242 33.1125 20.6624ZM0.37265 20.7143C0.458808 20.8007 0.57944 20.8439 0.734525 20.8439H4.27576C4.68933 20.8439 5.01675 20.6539 5.258 20.2738L6.7572 17.7605H13.5036L13.9172 20.222C13.9862 20.6365 14.2533 20.8439 14.7185 20.8439H18.0012C18.1908 20.8439 18.3459 20.7748 18.4665 20.6365C18.5872 20.4984 18.6389 20.3084 18.6216 20.0665L16.1143 3.45762C16.0454 2.95668 15.7525 2.70621 15.2355 2.70621H11.048C10.5483 2.70621 10.152 2.95668 9.85901 3.45762L0.320956 20.0665C0.269261 20.1701 0.243408 20.2652 0.243408 20.3516C0.243408 20.4897 0.286493 20.6107 0.37265 20.7143ZM13.2452 13.8738H8.64414L12.3404 7.26652L13.2452 13.8738ZM22.5648 20.8438C22.3236 20.8438 22.1513 20.792 22.0479 20.6883C21.9617 20.5674 21.8928 20.4033 21.8412 20.196L19.4889 8.12153C19.4545 7.89697 19.4889 7.71559 19.5923 7.5774C19.713 7.43921 19.9025 7.37012 20.161 7.37012H23.056C23.28 7.37012 23.4351 7.42194 23.5213 7.52558C23.6247 7.62923 23.7023 7.77605 23.7539 7.96607L24.9171 15.6616L29.4147 7.91425C29.6215 7.55149 29.9058 7.37012 30.2677 7.37012H33.5763C33.7314 7.37012 33.852 7.41331 33.9382 7.49967C34.0243 7.56877 34.0674 7.67241 34.0674 7.8106C34.0674 7.91425 34.0243 8.03516 33.9382 8.17336L26.5197 20.196C26.3819 20.4033 26.2353 20.5674 26.0802 20.6883C25.9424 20.792 25.7529 20.8438 25.5116 20.8438H22.5648ZM41.6599 19.937C42.4526 20.7143 43.5727 21.103 45.0202 21.103C45.9335 21.103 46.6917 20.9648 47.2948 20.6884C47.8979 20.3948 48.5011 19.9629 49.1042 19.3929L48.9233 20.1961C48.8888 20.3688 48.9233 20.5243 49.0267 20.6624C49.1301 20.7834 49.2766 20.8439 49.4661 20.8439H52.5421C52.7144 20.8439 52.8781 20.7834 53.0332 20.6624C53.1883 20.5416 53.2831 20.3861 53.3175 20.1961L55.9023 8.01796C55.9368 7.84521 55.9023 7.69839 55.7989 7.57746C55.6956 7.43928 55.5491 7.37018 55.3596 7.37018H52.3094C52.1199 7.37018 51.9475 7.43064 51.7924 7.55156C51.6546 7.67247 51.5684 7.82794 51.534 8.01796L51.3789 8.66572C51.017 8.16478 50.5603 7.78476 50.0089 7.52565C49.4575 7.24927 48.6993 7.11107 47.7343 7.11107C45.9938 7.11107 44.5635 7.64656 43.4435 8.71755C42.3234 9.77126 41.5134 11.2568 41.0137 13.1742L40.6259 15.0139C40.5398 15.463 40.4967 15.9813 40.4967 16.5685C40.4967 18.0196 40.8844 19.1423 41.6599 19.937ZM48.7682 16.8018C48.3029 17.2682 47.6912 17.5014 46.9329 17.5014C46.3471 17.5014 45.9335 17.3545 45.6922 17.0608C45.451 16.7672 45.3303 16.344 45.3303 15.7913C45.3303 15.5149 45.3562 15.2212 45.4079 14.9103C45.4596 14.4265 45.5716 13.8911 45.744 13.3038C45.9852 12.4919 46.3212 11.8614 46.7521 11.4123C47.1828 10.9459 47.7687 10.7127 48.5097 10.7127C49.1128 10.7127 49.5522 10.8681 49.828 11.1791C50.1037 11.49 50.2416 11.9133 50.2416 12.4488C50.2416 12.5696 50.2243 12.7683 50.1899 13.0447C50.1037 13.6147 49.9659 14.2625 49.7762 14.988C49.5867 15.7135 49.2507 16.3181 48.7682 16.8018ZM58.5358 17.2162C58.5358 19.6345 60.1471 20.8438 63.3695 20.8438H65.5666C65.7389 20.8438 65.9027 20.7832 66.0578 20.6623C66.2128 20.5415 66.3076 20.386 66.3421 20.196L66.859 17.8121C66.8935 17.6221 66.859 17.4667 66.7557 17.3458C66.6694 17.2075 66.5317 17.1385 66.3421 17.1385H64.2484C63.852 17.1385 63.5677 17.0607 63.3954 16.9052C63.2403 16.7498 63.1627 16.508 63.1627 16.1797C63.1627 15.8861 63.1972 15.5925 63.2661 15.2988L64.1966 10.8939H67.4535C67.6259 10.8939 67.7895 10.8335 67.9446 10.7125C68.0997 10.5916 68.1945 10.4361 68.229 10.2461L68.6943 8.01783C68.7287 7.82782 68.6943 7.67234 68.5909 7.55143C68.5047 7.43051 68.3669 7.37006 68.1773 7.37006H64.9463L65.8509 3.09476C65.8854 2.92202 65.8509 2.77519 65.7476 2.65427C65.6614 2.51608 65.5236 2.44698 65.334 2.44698H62.1546C61.9823 2.44698 61.8186 2.50744 61.6635 2.62836C61.5084 2.74927 61.4136 2.90475 61.3792 3.09476L60.4744 7.37006H58.4325C58.2429 7.37006 58.0706 7.43915 57.9155 7.57734C57.7604 7.69826 57.6656 7.84509 57.6312 8.01783L57.1917 10.2461C57.1401 10.4189 57.1659 10.5744 57.2693 10.7125C57.3727 10.8335 57.5192 10.8939 57.7087 10.8939H59.7249L58.7168 15.6874C58.5961 16.2229 58.5358 16.7325 58.5358 17.2162ZM68.5063 20.6624C68.6096 20.7833 68.7561 20.8438 68.9456 20.8438H72.3577C72.5472 20.8438 72.7196 20.7833 72.8747 20.6624C73.0298 20.5415 73.1246 20.3861 73.159 20.196L74.5548 13.6664C74.6926 12.9755 74.9856 12.44 75.4336 12.06C75.8816 11.68 76.4504 11.49 77.1396 11.49H79.7503C79.9399 11.49 80.1122 11.4295 80.2673 11.3086C80.4223 11.1704 80.5085 11.0149 80.5258 10.8422L81.1203 8.01789C81.1547 7.82788 81.1203 7.67241 81.0169 7.55149C80.9307 7.43057 80.8014 7.37012 80.6292 7.37012H79.1299C78.2339 7.37012 77.4757 7.51694 76.8553 7.8106C76.2349 8.08698 75.7007 8.49293 75.2527 9.02842L75.4595 8.0438C75.494 7.85379 75.4595 7.69832 75.3561 7.5774C75.27 7.43921 75.1321 7.37012 74.9425 7.37012H71.789C71.5995 7.37012 71.4271 7.43921 71.272 7.5774C71.1169 7.69832 71.0222 7.85379 70.9877 8.0438L68.4287 20.196C68.3943 20.3687 68.4201 20.5242 68.5063 20.6624ZM83.7282 5.32326C83.8315 5.44418 83.978 5.50464 84.1675 5.50464H87.3986C87.5881 5.50464 87.7605 5.44418 87.9156 5.32326C88.0707 5.18507 88.1569 5.02097 88.1741 4.83096L88.7169 2.42124C88.7513 2.23123 88.7169 2.07577 88.6134 1.95484C88.5101 1.81666 88.3636 1.74756 88.1741 1.74756H84.943C84.7707 1.74756 84.5984 1.81666 84.426 1.95484C84.271 2.07577 84.1762 2.23123 84.1417 2.42124L83.6247 4.83096C83.5903 5.02097 83.6247 5.18507 83.7282 5.32326ZM80.9107 20.8438C80.7211 20.8438 80.5747 20.7833 80.4712 20.6624C80.3851 20.5242 80.3592 20.3687 80.3937 20.196L82.9526 8.01789C82.9872 7.84515 83.082 7.69832 83.237 7.5774C83.3921 7.43921 83.5644 7.37012 83.754 7.37012H86.985C87.1746 7.37012 87.3124 7.43057 87.3986 7.55149C87.502 7.67241 87.5364 7.82788 87.502 8.01789L84.9172 20.196C84.8827 20.3861 84.7879 20.5415 84.6328 20.6624C84.4949 20.7833 84.3313 20.8438 84.1417 20.8438H80.9107ZM92.2043 13.3485L89.6957 8.29516C89.6611 8.19153 89.6439 8.12243 89.6439 8.08788C89.6439 7.91514 89.7042 7.75967 89.8249 7.62149C89.9628 7.46601 90.1264 7.38829 90.316 7.38829H93.5212C93.8491 7.38829 94.0812 7.54375 94.2193 7.85468L95.8404 10.9753C97.2118 11.2732 98.2406 12.4973 98.2406 13.9622C98.2406 15.65 96.8756 17.0182 95.192 17.0182C93.5083 17.0182 92.1429 15.65 92.1429 13.9622C92.1429 13.752 92.1641 13.5468 92.2043 13.3485ZM96.3543 13.9622C96.3543 14.6057 95.8339 15.1274 95.192 15.1274C94.55 15.1274 94.0296 14.6057 94.0296 13.9622C94.0296 13.3185 94.55 12.7969 95.192 12.7969C95.8339 12.7969 96.3543 13.3185 96.3543 13.9622ZM93.4862 17.2207C93.5341 17.2467 93.5838 17.2711 93.6354 17.2939L93.1767 18.5378C92.1842 21.0548 90.7615 24.1132 89.1273 25.9879C88.3492 26.8572 87.3691 27.5207 86.274 27.9196C85.9439 27.9736 85.6099 28.0006 85.2754 28.0004H81.2807C81.1808 28.0055 81.0819 27.9794 80.9974 27.9258C80.9506 27.8866 80.9076 27.8428 80.8692 27.7953C80.8508 27.7684 80.835 27.7399 80.8217 27.7103C80.8191 27.7034 80.815 27.6971 80.8095 27.6921C80.8042 27.6871 80.7977 27.6834 80.7907 27.6813C80.6521 27.4222 80.6976 27.1133 80.9974 26.7693L85.0748 22.0914L85.1657 21.9878L91.7305 14.4703V14.5096C91.7433 14.8919 91.8259 15.2684 91.9744 15.6206C92.1539 16.0411 92.4242 16.4163 92.7659 16.7191C92.9824 16.9183 93.2246 17.087 93.4862 17.2207ZM90.6181 22.0458C90.4957 22.5277 90.3367 22.9996 90.1425 23.4572C89.7535 24.3626 89.2261 25.2018 88.5794 25.9443C89.0121 25.0848 89.3831 24.1955 89.6897 23.2831C89.8034 22.9287 89.8965 22.568 89.9792 22.2033L88.1473 24.2324L90.1343 21.424C90.188 21.1227 90.2335 20.8201 90.2707 20.5162L88.5918 22.3939L88.1183 22.937L88.5071 22.3919L90.3431 19.8281L90.3575 19.8405L90.4341 19.0736C90.4341 19.0445 90.4387 19.0154 90.4432 18.9869C90.4447 18.9773 90.4463 18.9678 90.4476 18.9583C90.4488 18.9497 90.4498 18.9412 90.4506 18.9326L87.9529 21.7804L90.5395 18.2362C90.5663 18.029 90.5974 17.8218 90.6367 17.6145C90.6573 17.5005 90.6781 17.3865 90.7008 17.2725L87.9342 20.4622L88.9681 19.0674L90.9282 16.4041C91.0906 15.8616 91.3183 15.341 91.6064 14.8538C91.4636 15.3702 91.3526 15.8948 91.2735 16.4248C91.2706 16.4439 91.2675 16.4629 91.2645 16.482L91.2643 16.4832L91.2606 16.5057C91.2519 16.5595 91.2432 16.6134 91.2363 16.6673C91.1887 17.003 91.1495 17.3409 91.1226 17.6787C91.1132 17.8154 91.1032 17.952 91.0932 18.089C91.0682 18.4319 91.0432 18.7771 91.0254 19.1296C91.0006 19.6229 90.951 20.1016 90.893 20.5804C90.8714 20.7306 90.8478 20.8826 90.8242 21.0346L90.8207 21.0567V21.0571C90.7628 21.3908 90.6987 21.7204 90.6181 22.0458ZM98.2987 15.8654C97.6595 16.9129 96.5063 17.6119 95.192 17.6119C94.8853 17.6119 94.5878 17.5739 94.3031 17.5025L95.8026 20.3885C95.9399 20.6994 96.1729 20.8548 96.4999 20.8548H99.7051C99.8949 20.8548 100.059 20.7771 100.196 20.6216C100.317 20.4835 100.377 20.328 100.377 20.1553C100.377 20.1207 100.36 20.0516 100.326 19.948L98.2987 15.8654Z" fill="white"/>
</g>
<defs>
<clipPath id="clip0_4595_8477">
<rect width="109.513" height="28" fill="white" transform="translate(0.243408 0.000976562)"/>
</clipPath>
</defs>
</svg>

<svg width="110" height="28" fill="none" xmlns="http://www.w3.org/2000/svg"><g clip-path="url(#a)"><path fill-rule="evenodd" clip-rule="evenodd" d="M96.837 10.708a3.244 3.244 0 0 1 .87.575 3.076 3.076 0 0 1 1.035 2.21v.039l6.565-7.518.09-.103 4.078-4.678c.3-.344.345-.653.207-.912a.046.046 0 0 1-.019-.011.037.037 0 0 1-.012-.018.551.551 0 0 0-.048-.085.915.915 0 0 0-.128-.13.483.483 0 0 0-.283-.075h-3.995c-.335 0-.668.026-.999.08a7.071 7.071 0 0 0-2.852 1.932c-1.635 1.875-3.058 4.933-4.05 7.45l-.459 1.244Zm3.493-6.163c-.195.457-.353.93-.476 1.411-.08.326-.144.655-.202.989-.025.16-.05.32-.073.477a21.2 21.2 0 0 0-.132 1.45c-.016.325-.039.643-.062.958l-.006.083V9.926l-.03.397a16.922 16.922 0 0 1-.138 1.173l-.004.028-.004.03-.004.022v.001c-.079.53-.19 1.055-.333 1.571a6.953 6.953 0 0 0 .678-1.55l1.96-2.663 1.034-1.395-2.767 3.19c.018-.086.034-.172.05-.258l.015-.085c.039-.207.07-.414.097-.621l2.587-3.544-2.498 2.847.002-.014.005-.04a.507.507 0 0 0 .01-.087l.076-.766.015.012 1.835-2.564.389-.545-.473.543-1.679 1.878c.037-.304.082-.607.136-.908l1.988-2.808-1.832 2.029c.082-.365.175-.726.289-1.08.306-.912.678-1.802 1.11-2.661a9.486 9.486 0 0 0-1.563 2.487Zm-63.521.96c-.19 0-.336-.06-.44-.182a.606.606 0 0 1-.103-.492l.517-2.41a.742.742 0 0 1 .284-.466c.173-.138.345-.207.517-.207h3.231c.19 0 .336.069.44.207.103.12.138.276.103.466l-.543 2.41a.732.732 0 0 1-.258.492.82.82 0 0 1-.517.182h-3.231Zm-3.697 15.157c.104.121.25.182.44.182h3.231a.72.72 0 0 0 .491-.182.742.742 0 0 0 .284-.466l2.585-12.178c.035-.19 0-.346-.103-.467-.086-.12-.224-.18-.414-.18h-3.23c-.19 0-.363.068-.518.206a.731.731 0 0 0-.284.44l-2.56 12.179a.621.621 0 0 0 .078.466Zm-32.74.052c.087.087.207.13.363.13h3.54c.414 0 .742-.19.983-.57l1.5-2.514h6.746l.413 2.462c.07.415.336.622.802.622H18a.59.59 0 0 0 .465-.207c.121-.139.173-.329.156-.57l-2.508-16.61c-.069-.5-.362-.75-.879-.75h-4.187c-.5 0-.896.25-1.189.75L.321 20.068a.646.646 0 0 0-.078.285c0 .138.043.259.13.362Zm12.873-6.84h-4.6l3.695-6.607.905 6.607Zm9.32 6.97c-.241 0-.414-.052-.517-.156a1.454 1.454 0 0 1-.207-.492L19.49 8.122c-.035-.225 0-.406.103-.545.121-.138.31-.207.569-.207h2.895c.224 0 .38.052.465.156a.97.97 0 0 1 .233.44l1.163 7.696 4.498-7.748c.207-.363.49-.544.853-.544h3.308c.155 0 .276.043.362.13.086.069.13.172.13.31a.714.714 0 0 1-.13.363L26.52 20.196a2.067 2.067 0 0 1-.44.492c-.138.104-.327.156-.568.156h-2.947Zm19.095-.907c.793.777 1.913 1.166 3.36 1.166.913 0 1.672-.138 2.275-.415.603-.293 1.206-.725 1.81-1.295l-.182.803a.562.562 0 0 0 .104.466c.103.121.25.182.44.182h3.075c.172 0 .336-.06.491-.182a.74.74 0 0 0 .285-.466l2.584-12.178a.494.494 0 0 0-.103-.44.516.516 0 0 0-.44-.208h-3.05a.82.82 0 0 0-.517.182.788.788 0 0 0-.258.466l-.155.648a3.506 3.506 0 0 0-1.37-1.14c-.551-.277-1.31-.415-2.275-.415-1.74 0-3.17.536-4.29 1.607-1.12 1.053-1.93 2.539-2.43 4.456l-.388 1.84c-.086.449-.13.967-.13 1.555 0 1.45.388 2.573 1.164 3.368Zm7.108-3.135c-.465.466-1.077.7-1.835.7-.586 0-1-.147-1.24-.441-.242-.294-.363-.717-.363-1.27 0-.276.026-.57.078-.88a9.25 9.25 0 0 1 .336-1.607c.241-.812.577-1.443 1.008-1.892.43-.466 1.017-.7 1.758-.7.603 0 1.042.156 1.318.467.276.311.414.734.414 1.27 0 .12-.018.32-.052.596-.086.57-.224 1.217-.414 1.943-.19.726-.525 1.33-1.008 1.814Zm9.768.414c0 2.418 1.611 3.628 4.834 3.628h2.197c.172 0 .336-.06.49-.182a.742.742 0 0 0 .285-.466l.517-2.384c.035-.19 0-.345-.103-.466-.087-.139-.224-.207-.414-.207h-2.094c-.396 0-.68-.078-.853-.234-.155-.155-.232-.397-.232-.725 0-.294.034-.588.103-.881l.93-4.405h3.258c.172 0 .336-.06.49-.181a.742.742 0 0 0 .285-.467l.465-2.228c.035-.19 0-.346-.103-.467-.086-.12-.224-.18-.414-.18h-3.23l.904-4.276a.494.494 0 0 0-.103-.44c-.087-.139-.224-.208-.414-.208h-3.18a.787.787 0 0 0-.49.181.741.741 0 0 0-.285.467l-.905 4.275h-2.041c-.19 0-.362.07-.517.207a.731.731 0 0 0-.285.44l-.44 2.23a.5.5 0 0 0 .078.466c.104.12.25.18.44.18h2.016l-1.008 4.794a6.958 6.958 0 0 0-.181 1.53Zm9.97 3.446c.104.121.25.182.44.182h3.412c.19 0 .362-.06.517-.182a.741.741 0 0 0 .284-.466l1.396-6.53c.138-.69.43-1.226.879-1.606.448-.38 1.016-.57 1.706-.57h2.61a.82.82 0 0 0 .517-.181.715.715 0 0 0 .259-.467l.594-2.824c.035-.19 0-.346-.103-.467-.086-.12-.216-.18-.388-.18h-1.5c-.895 0-1.653.146-2.274.44a4.406 4.406 0 0 0-1.602 1.217l.207-.984c.034-.19 0-.346-.104-.467-.086-.138-.224-.207-.413-.207h-3.154a.76.76 0 0 0-.517.207.742.742 0 0 0-.284.467l-2.56 12.152a.621.621 0 0 0 .078.466ZM83.728 5.323c.104.121.25.182.44.182h3.23a.82.82 0 0 0 .518-.182.732.732 0 0 0 .258-.492l.543-2.41c.034-.19 0-.345-.104-.466a.516.516 0 0 0-.439-.207h-3.231c-.172 0-.345.069-.517.207a.742.742 0 0 0-.284.466l-.517 2.41c-.035.19 0 .354.103.492Zm-2.817 15.52c-.19 0-.336-.06-.44-.18a.621.621 0 0 1-.077-.467l2.559-12.178a.733.733 0 0 1 .284-.44.759.759 0 0 1 .517-.208h3.231c.19 0 .327.06.414.181.103.121.137.277.103.467l-2.585 12.178a.742.742 0 0 1-.284.466.72.72 0 0 1-.491.182H80.91Zm11.293-7.495-2.508-5.053a.845.845 0 0 1-.052-.207.69.69 0 0 1 .18-.467.636.636 0 0 1 .492-.233h3.205c.328 0 .56.156.698.467l1.621 3.12a3.056 3.056 0 0 1 2.4 2.987 3.052 3.052 0 0 1-3.048 3.056 3.053 3.053 0 0 1-2.988-3.67Zm4.15.614c0 .644-.52 1.165-1.162 1.165a1.164 1.164 0 0 1-1.162-1.165c0-.643.52-1.165 1.162-1.165.642 0 1.162.521 1.162 1.165Zm-2.868 3.259c.048.026.098.05.15.073l-.46 1.244c-.992 2.517-2.415 5.575-4.049 7.45a7.083 7.083 0 0 1-2.853 1.932c-.33.054-.664.08-.999.08h-3.994a.483.483 0 0 1-.284-.074.947.947 0 0 1-.128-.13.549.549 0 0 1-.047-.086.047.047 0 0 0-.031-.029c-.139-.259-.093-.568.206-.912l4.078-4.678.09-.103 6.566-7.518v.04c.012.382.095.758.243 1.11.18.421.45.796.792 1.1.216.198.459.367.72.5Zm-2.868 4.825a9.769 9.769 0 0 1-.475 1.411 9.492 9.492 0 0 1-1.564 2.487c.433-.86.804-1.748 1.11-2.66.114-.355.208-.716.29-1.08l-1.832 2.028 1.987-2.808c.054-.301.1-.604.137-.908l-1.68 1.878-.473.543.39-.545 1.835-2.564.014.012.077-.766c0-.03.005-.059.01-.087a.562.562 0 0 0 .007-.054l-2.498 2.847 2.587-3.544c.026-.207.057-.414.097-.622.02-.114.041-.227.064-.341l-2.767 3.19 1.034-1.396 1.96-2.663c.163-.542.39-1.063.678-1.55a13.21 13.21 0 0 0-.332 1.57l-.01.058v.001l-.003.023a16.6 16.6 0 0 0-.138 1.173l-.03.41c-.025.343-.05.688-.068 1.04-.024.494-.074.973-.132 1.451l-.069.455-.003.022c-.058.334-.122.663-.203.989Zm7.68-6.18a3.636 3.636 0 0 1-3.995 1.637l1.5 2.886c.137.31.37.466.697.466h3.205c.19 0 .354-.078.491-.233a.689.689 0 0 0 .181-.467.858.858 0 0 0-.051-.207l-2.027-4.083Z" fill="#fff"/></g><defs><clipPath id="a"><path fill="#fff" transform="translate(.243 .001)" d="M0 0h109.513v28H0z"/></clipPath></defs></svg>
